X:3252
L:1/8
M:3/4
K:G
 GB |:"G" dg GB AG |"D7" FA Dc F2 | df Ac BA |"G" GB DB G2 | dg GB AG |"D7" FA Dc F2 | df Fc BA |1 
"G" G2 z2 GB :|2"G" G2 z2 ed |:"Am" cB AG"D7" FE |"G" DG Be d2 |"D7" DF Ac f2 |"G" DG Bd g2 | 
"Am" cB AG"D7" FE |"G" DG Be d2 |"D7" DF Ac fa |1"G" g2 z2 ed :|2"G" g2 z2 z2 |]

